X: 1
T: Orsapolska in Am efter Jonny Soling
T: "I like horses very much"
Z: 2009 John Chambers <jc:trillian.mit.edu>
M: 3/4
L: 1/16
K: Am
[| A4 ded^c A3c | d4 gage f4 | f3e d3^c A3B | c2e2 e8 |
|  A4 ded^c A3c | d4 gage f4 | a3f d3^c A3B | c2e2 e8 |]
|: e4 gage f3e | (3d2^c2d2 e2c2 A4- | (3A4 g4 a4 f4 | ed^cd efec A4 |
|  c3B A3B cBcd | e8 c4 | d3f e4 c3B | (3E2^G2B2 A8 :|
